en/template-builder/_images/index/instruction_list.svg

<svg width="121" height="121" viewBox="0 0 121 121" fill="none" xmlns="http://www.w3.org/2000/svg">
<path fill-rule="evenodd" clip-rule="evenodd" d="M51.4931 115.494C49.3357 114.614 48.4851 113.494 48.2744 112.174L48.2504 112.254L46.9651 103.267C46.0931 96.8803 41.2078 94.827 36.0531 98.7204L28.4718 104.334C27.0904 105.107 25.3518 105.014 24.0638 104.067C19.4345 100.467 15.3811 96.1869 13.7518 93.6003C12.8691 91.4936 13.0585 90.107 13.8478 89.027L13.7785 89.0537L19.2025 81.8005C23.1118 76.6672 21.0958 71.7739 14.7065 70.8673L5.43448 69.4805C3.86115 69.0672 2.66382 67.7204 2.52249 66.3471C2.07982 62.4538 2.00782 60.7605 2.00782 59.0405C2.00782 55.5072 2.33049 52.054 2.55716 51.5206C3.42916 49.374 4.54649 48.5204 5.87182 48.3071L5.81315 48.2938L14.7491 47.0005C21.1411 46.1338 23.1811 41.2406 19.2958 36.0939L13.9678 28.8938C12.9331 27.4671 12.9358 25.5207 13.9705 24.1073C17.5651 19.4807 21.8451 15.4274 24.4531 13.7874C26.5438 12.9074 27.9385 13.0938 29.0265 13.8805L29.0158 13.8675L36.2104 19.2405C41.3491 23.1471 46.2451 21.134 47.1438 14.7473L48.4771 5.86749L48.4798 5.86749C48.7571 4.10749 50.1811 2.7072 51.6824 2.56053C55.5784 2.12053 57.2851 2.04067 59.0078 2.04067C60.7624 2.04067 62.5037 2.12056 66.5304 2.58722C68.0131 2.74723 69.4237 4.10747 69.7251 5.84079L71.0131 14.7874C71.8824 21.174 76.7677 23.2139 81.9277 19.3339L89.165 13.9873L89.1544 14.0006C90.549 12.9873 92.4477 12.9739 93.8397 13.9339C97.7304 16.9472 101.2 20.4139 104.216 24.3339C105.146 25.6406 105.192 27.4407 104.32 28.8274L98.7757 36.2404C94.869 41.3871 96.8824 46.2807 103.277 47.1873L112.405 48.5604C113.629 48.8271 114.645 49.6405 115.482 51.7205C115.701 52.2272 116.008 55.6005 116.008 59.0405C116.008 60.8005 115.925 62.5337 115.453 66.5603C115.306 68.067 113.914 69.4805 112.149 69.7739L103.232 71.0538C96.837 71.9205 94.797 76.8004 98.6797 81.9603L104.245 89.4938C105.069 90.8672 105.002 92.6403 104.088 93.9069C101.509 97.2269 98.613 100.227 93.5704 104.294C92.4317 105.227 90.4397 105.254 88.989 104.2L89.005 104.227L81.7704 98.8138C76.6344 94.9071 71.7384 96.9203 70.8344 103.307L69.4211 112.707C69.0984 113.814 68.3197 114.72 66.3117 115.52C65.7944 115.747 62.4344 116.04 59.0077 116.04C55.4744 116.04 52.0184 115.72 51.4931 115.494Z" fill="url(#paint0_linear)"/>
<path d="M34.5352 83.5135C21.0205 69.9988 21.0214 48.0862 34.5372 34.5705C48.0529 21.0547 69.9655 21.0538 83.4802 34.5685C96.9949 48.0832 96.994 69.9958 83.4782 83.5115C69.9625 97.0273 48.0499 97.0282 34.5352 83.5135Z" fill="url(#paint1_linear)"/>
<path d="M48.0039 48.84C48.0039 42.8748 52.9339 38.0396 59.0039 38.0396C65.074 38.0396 70.0039 42.8748 70.0039 48.84C70.0039 51.8498 68.7399 54.5879 66.7054 56.5437L59.9718 62.2482C58.7786 63.2696 59.0509 64.2475 59 65.2689L59.0022 68.0396" stroke="#0055D9" stroke-width="2" stroke-miterlimit="79.8403" stroke-linecap="round" stroke-linejoin="round"/>
<path d="M59.0039 76.0396V79.0396" stroke="#0055D9" stroke-width="2" stroke-miterlimit="79.8403" stroke-linecap="round" stroke-linejoin="round"/>
<defs>
<linearGradient id="paint0_linear" x1="88.6209" y1="115.497" x2="88.621" y2="2.03888" gradientUnits="userSpaceOnUse">
<stop stop-color="#A1BFFF" stop-opacity="0.17"/>
<stop offset="1" stop-color="#679BFF" stop-opacity="0.92"/>
</linearGradient>
<linearGradient id="paint1_linear" x1="84.0037" y1="25.541" x2="31.5037" y2="93.541" gradientUnits="userSpaceOnUse">
<stop offset="0.02" stop-color="#0064FF"/>
<stop offset="0.06" stop-color="#005FFF" stop-opacity="0.86"/>
<stop offset="0.11" stop-color="#005BFF" stop-opacity="0.72"/>
<stop offset="0.17" stop-color="#0057FF" stop-opacity="0.59"/>
<stop offset="0.23" stop-color="#0053FF" stop-opacity="0.48"/>
<stop offset="0.3" stop-color="#0051FF" stop-opacity="0.4"/>
<stop offset="0.38" stop-color="#004FFF" stop-opacity="0.33"/>
<stop offset="0.48" stop-color="#004DFF" stop-opacity="0.28"/>
<stop offset="0.61" stop-color="#004CFF" stop-opacity="0.26"/>
<stop offset="1" stop-color="#004CFF" stop-opacity="0.25"/>
</linearGradient>
</defs>
</svg>

<svg xmlns="http://www.w3.org/2000/svg" width="121" height="121" fill="none"><path fill="url(#a)" fill-rule="evenodd" d="M51.493 115.494c-2.157-.88-3.008-2-3.219-3.32l-.024.08-1.285-8.987c-.872-6.387-5.757-8.44-10.912-4.547l-7.581 5.614a4.097 4.097 0 0 1-4.408-.267c-4.63-3.6-8.683-7.88-10.312-10.467-.883-2.106-.694-3.493.096-4.573l-.07.027 5.425-7.254c3.909-5.133 1.893-10.026-4.496-10.933l-9.273-1.386c-1.573-.414-2.77-1.76-2.912-3.134-.442-3.893-.514-5.586-.514-7.306 0-3.534.322-6.987.55-7.52.871-2.147 1.988-3 3.314-3.214l-.059-.013L14.75 47c6.392-.867 8.432-5.76 4.547-10.907l-5.328-7.2a4.078 4.078 0 0 1 .002-4.787c3.595-4.626 7.875-8.68 10.483-10.32 2.09-.88 3.486-.693 4.573.093l-.01-.013 7.194 5.373c5.14 3.907 10.035 1.894 10.934-4.493l1.333-8.88h.003c.277-1.76 1.701-3.16 3.202-3.306 3.896-.44 5.603-.52 7.326-.52 1.754 0 3.496.08 7.522.546 1.483.16 2.894 1.52 3.195 3.254l1.288 8.946c.87 6.387 5.755 8.427 10.915 4.547l7.237-5.347-.01.014a4.08 4.08 0 0 1 4.685-.067 57.35 57.35 0 0 1 10.376 10.4c.93 1.307.976 3.107.104 4.493l-5.544 7.413c-3.907 5.147-1.894 10.04 4.501 10.947l9.128 1.373c1.224.267 2.24 1.08 3.077 3.16.219.507.526 3.88.526 7.32 0 1.76-.083 3.494-.555 7.52-.147 1.507-1.539 2.92-3.304 3.214l-8.917 1.28c-6.395.867-8.435 5.746-4.552 10.906l5.565 7.534c.824 1.373.757 3.146-.157 4.413-2.579 3.32-5.475 6.32-10.518 10.387-1.138.933-3.13.96-4.581-.094l.016.027-7.235-5.413c-5.136-3.907-10.032-1.894-10.936 4.493l-1.413 9.4c-.323 1.107-1.101 2.013-3.11 2.813-.517.227-3.877.52-7.303.52-3.534 0-6.99-.32-7.515-.546Z" clip-rule="evenodd"/><path fill="url(#b)" d="M34.535 83.513C21.021 70 21.021 48.086 34.537 34.57c13.516-13.515 35.429-13.516 48.943-.002 13.515 13.515 13.514 35.428-.002 48.944-13.515 13.515-35.428 13.516-48.943.001Z"/><path stroke="#0055D9" stroke-linecap="round" stroke-linejoin="round" stroke-miterlimit="79.84" stroke-width="2" d="M48.004 48.84c0-5.965 4.93-10.8 11-10.8s11 4.835 11 10.8c0 3.01-1.264 5.748-3.299 7.704l-6.733 5.704c-1.193 1.022-.921 2-.972 3.02l.002 2.772M59.004 76.04v3"/><defs><linearGradient id="a" x1="88.621" x2="88.621" y1="115.497" y2="2.039" gradientUnits="userSpaceOnUse"><stop stop-color="#A1BFFF" stop-opacity=".17"/><stop offset="1" stop-color="#679BFF" stop-opacity=".92"/></linearGradient><linearGradient id="b" x1="84.004" x2="31.504" y1="25.541" y2="93.541" gradientUnits="userSpaceOnUse"><stop offset=".02" stop-color="#0064FF"/><stop offset=".06" stop-color="#005FFF" stop-opacity=".86"/><stop offset=".11" stop-color="#005BFF" stop-opacity=".72"/><stop offset=".17" stop-color="#0057FF" stop-opacity=".59"/><stop offset=".23" stop-color="#0053FF" stop-opacity=".48"/><stop offset=".3" stop-color="#0051FF" stop-opacity=".4"/><stop offset=".38" stop-color="#004FFF" stop-opacity=".33"/><stop offset=".48" stop-color="#004DFF" stop-opacity=".28"/><stop offset=".61" stop-color="#004CFF" stop-opacity=".26"/><stop offset="1" stop-color="#004CFF" stop-opacity=".25"/></linearGradient></defs></svg>
